X: 38
T: No_132_Song_for_the_Enemy's_Country.krn
N: Derived from No_132_Song_for_the_Enemy's_Country.krn
%%abc-version 2.0
%%abcx-abcm2ps-target-version 5.9.1 (29 Sep 2008)
%%abc-creator hum2abc beta
%%abcx-conversion-date 2019/03/15 08:37:56
%%humdrum-veritas 3150223919
%%humdrum-veritas-data 1565682302
%%linebreak <none>
%%barnumbers 0
L: 1/8
M: 3/4
K: Db clef=bass
[K:clef=bass][M:3/4]E4-ED | 
E2DB, B, z ]|:  
E3D ED3//B,// | 
B,4-B,A, | 
B,2A,G,- G, z/ D/ | 
D2B,2CB, | 
A,2F,E,-E,2 ||  
[M:5/8]A,A,G,B,3/B,/ ||  
[M:3/4]A,4(A,F,) | 
A,2A,4 | 
A,6 :|]  



